X: 8940
T: Curragh Races, The
R: reel
M: 4/4
K: Bdorian
fBdf fBdf|eA(3cBA eA(3cBA|fBdf fBdf|ecAc dBB2|
fBdf fBdf|eA(3cBA eA(3cBA|dcdB cBAd|ecAc dBB2|
d2fd adfd|c2ec Acec|d2fd adfd|ecAc dBB2|
d2fd adfd|c2ec Acec|defg abaf|ecAc dBB2|

